X: 381
T: Norrie Williams
C: Bert Murray
R: strathspey
B: Bert Murray's "Bon Accord Collection" 1999 p.38
%
Z: 2011 John Chambers <jc:trillian.mit.edu>
N: The final e4 should probably be e2.
M: C
L: 1/16
K: Em
uD2 |\
B,3E E3G B3AG3B | A3Bd3B AGFE D3A, | B,E3 E3G B3AG3B | A3FD3F GE3 E3D |
B,3E E3D B,E3 E3F | D3FA3^c dcBA GFED | B,E3 E3G B3AG3B | A3FD3F (GE3) E4 ||
Be3 e3f g3fe3^c | d3BA3d FD3 D3d | Be3 e3f g3fg3e | f3ga3f ge3 e3d |
Be3 e3f g3fe3^c | d2fd A2dA F2AF (.D3.A,) | B,E3 E3G B3eg3b | a3fd3f (ge3) e4 |]

%%sep 2 1 500

